Numix-GalliumOS/22/categories/applications-libraries.svg

<?xml version="1.0" encoding="UTF-8" standalone="no"?>
<svg
   xmlns:dc="http://purl.org/dc/elements/1.1/"
   xmlns:cc="http://creativecommons.org/ns#"
   xmlns:rdf="http://www.w3.org/1999/02/22-rdf-syntax-ns#"
   xmlns:svg="http://www.w3.org/2000/svg"
   xmlns="http://www.w3.org/2000/svg"
   xmlns:sodipodi="http://sodipodi.sourceforge.net/DTD/sodipodi-0.dtd"
   xmlns:inkscape="http://www.inkscape.org/namespaces/inkscape"
   width="22"
   height="22"
   viewBox="0 0 17.6 17.6"
   id="svg2"
   version="1.1"
   inkscape:version="0.91 r"
   sodipodi:docname="applications-libraries.svg">
  <metadata
     id="metadata16">
    <rdf:RDF>
      <cc:Work
         rdf:about="">
        <dc:format>image/svg+xml</dc:format>
        <dc:type
           rdf:resource="http://purl.org/dc/dcmitype/StillImage" />
        <dc:title />
      </cc:Work>
    </rdf:RDF>
  </metadata>
  <defs
     id="defs14" />
  <sodipodi:namedview
     pagecolor="#ffffff"
     bordercolor="#666666"
     borderopacity="1"
     objecttolerance="10"
     gridtolerance="10"
     guidetolerance="10"
     inkscape:pageopacity="0"
     inkscape:pageshadow="2"
     inkscape:window-width="1680"
     inkscape:window-height="1026"
     id="namedview12"
     showgrid="true"
     inkscape:zoom="19.873684"
     inkscape:cx="14.085289"
     inkscape:cy="19.517547"
     inkscape:window-x="0"
     inkscape:window-y="24"
     inkscape:window-maximized="1"
     inkscape:current-layer="svg2">
    <inkscape:grid
       type="xygrid"
       id="grid4144" />
  </sodipodi:namedview>
  <path
     style="fill:#b2a546"
     d="M 2.09375,1.5999996 C 1.8191796,1.5999996 1.6,1.8126875 1.6,2.0781246 l 0,13.4437504 C 1.6,15.787312 1.8191796,16 2.09375,16 l 3.009375,0 C 5.379644,16 5.6,15.787312 5.6,15.521875 L 5.6,2.0781246 C 5.6,1.8126875 5.379644,1.5999996 5.103125,1.5999996 l -3.009375,0 z m 0.30625,0.8 2.4,0 0,6.4 -2.4,0 0,-6.4 z M 3.6,11.4 a 1,1 0 0 1 1,1 1,1 0 0 1 -1,1 1,1 0 0 1 -1,-1 1,1 0 0 1 1,-1 z"
     id="path6"
     inkscape:connector-curvature="0" />
  <path
     style="fill:#b2a546"
     d="M 6.815625,1.5999996 C 6.5849499,1.5999996 6.4,1.8126875 6.4,2.0781246 l 0,13.4437504 C 6.4,15.787312 6.5849499,16 6.815625,16 l 1.5671878,0 C 8.615124,16 8.8,15.787312 8.8,15.521875 L 8.8,2.0781246 C 8.8,1.8126875 8.615124,1.5999996 8.3828128,1.5999996 l -1.5671878,0 z m 0.384375,0.8 0.8,0 0,6.4 -0.8,0 0,-6.4 z M 7.6,11.8 A 0.60000002,0.60000002 0 0 1 8.2,12.4 0.60000002,0.60000002 0 0 1 7.6,13 0.60000002,0.60000002 0 0 1 7,12.4 0.60000002,0.60000002 0 0 1 7.6,11.8 Z"
     id="path8"
     inkscape:connector-curvature="0" />
  <path
     style="fill:#b2a546"
     d="M 9.827238,2.1594227 C 9.530151,2.2385077 9.346499,2.5061495 9.415199,2.7608688 l 3.479498,12.9009232 c 0.0687,0.254719 0.362448,0.395277 0.659534,0.316193 l 2.017881,-0.537162 c 0.299192,-0.07965 0.482248,-0.347128 0.413548,-0.601847 L 12.506161,1.9380527 C 12.437461,1.6833334 12.144311,1.5426164 11.845117,1.6222619 L 9.827238,2.1594227 Z m 0.444008,0.7046205 1.545482,-0.4114079 1.656442,6.1415826 -1.545482,0.411408 -1.656442,-6.1415827 z m 3.153876,8.6228218 a 0.8,0.79477928 0 0 1 0.979796,0.561994 0.8,0.79477928 0 0 1 -0.565685,0.973402 0.8,0.79477928 0 0 1 -0.979796,-0.561994 0.8,0.79477928 0 0 1 0.565685,-0.973402 z"
     id="path8-2"
     inkscape:connector-curvature="0" />
</svg>

<svg xmlns="http://www.w3.org/2000/svg" width="22" height="22" viewBox="0 0 17.6 17.6">
 <path d="m 2.094 1.6 c -0.275 0 -0.494 0.213 -0.494 0.478 l 0 13.444 c 0 0.265 0.219 0.478 0.494 0.478 l 3.01 0 c 0.277 0 0.497 -0.213 0.497 -0.478 l 0 -13.444 c 0 -0.265 -0.22 -0.478 -0.497 -0.478 l -3.01 0 z m 0.306 0.8 2.4 0 0 6.4 -2.4 0 0 -6.4 z m 1.2 9 a 1 1 0 0 1 1 1 1 1 0 0 1 -1 1 1 1 0 0 1 -1 -1 1 1 0 0 1 1 -1 z" style="fill:#b2a546"/>
 <path d="m 6.816 1.6 c -0.231 0 -0.416 0.213 -0.416 0.478 l 0 13.444 c 0 0.265 0.185 0.478 0.416 0.478 l 1.567 0 c 0.232 0 0.417 -0.213 0.417 -0.478 l 0 -13.444 c 0 -0.265 -0.185 -0.478 -0.417 -0.478 l -1.567 0 z m 0.384 0.8 0.8 0 0 6.4 -0.8 0 0 -6.4 z m 0.4 9.4 a 0.6 0.6 0 0 1 0.6 0.6 0.6 0.6 0 0 1 -0.6 0.6 0.6 0.6 0 0 1 -0.6 -0.6 0.6 0.6 0 0 1 0.6 -0.6" style="fill:#b2a546"/>
 <path d="m 9.827 2.159 c -0.297 0.079 -0.481 0.347 -0.412 0.601 l 3.479 12.901 c 0.069 0.255 0.362 0.395 0.66 0.316 l 2.02 -0.537 c 0.299 -0.08 0.482 -0.347 0.414 -0.602 l -3.479 -12.901 c -0.069 -0.255 -0.362 -0.395 -0.661 -0.316 l -2.02 0.537 m 0.444 0.705 1.545 -0.411 1.656 6.142 -1.545 0.411 -1.656 -6.142 z m 3.154 8.623 a 0.8 0.795 0 0 1 0.98 0.562 0.8 0.795 0 0 1 -0.566 0.973 0.8 0.795 0 0 1 -0.98 -0.562 0.8 0.795 0 0 1 0.566 -0.973 z" style="fill:#b2a546"/>
</svg>
